lib/healthicons/icons/solid/specialties/discharge_lounge.svg

<svg fill="none" height="48" viewBox="0 0 48 48" width="48" xmlns="http://www.w3.org/2000/svg"><path clip-rule="evenodd" d="m9 6c-1.65685 0-3 1.34315-3 3v30c0 1.6569 1.34315 3 3 3h30c1.6569 0 3-1.3431 3-3v-30c0-1.65685-1.3431-3-3-3zm14.0001 5v3h-3v2h3v3h2v-3h3v-2h-3v-3zm-12.9616 10.2747c-.15173-.531.1558-1.0845.6868-1.2362s1.0845.1557 1.2362.6868l1.1994 4.1977h7.8391v2h-1.3077v1.6924h.5384c.5523 0 1 .4477 1 1 0 .4136-.2511.7685-.6092.9207l1.3309 4.1591c.0324.1013.0479.2039.0479.3048h3.9994c0-.1009.0154-.2035.0478-.3048l1.331-4.1591c-.3581-.1522-.6092-.5071-.6092-.9207 0-.5523.4477-1 1-1h.5384v-1.6924h-1.3077v-2h7.8391l1.1993-4.1977c.1518-.5311.7053-.8385 1.2363-.6868s.8385.7052.6868 1.2362l-1.9347 6.7716 1.2888 6.7666c.012.0628.0178.1254.0179.1871h1.6665c.5523 0 1 .4477 1 1s-.4477 1-1 1h-30c-.55228 0-1-.4477-1-1s.44772-1 1-1h1.6665c.0001-.0617.0059-.1243.0178-.1871l1.2889-6.7666zm24.0607 7.3407h-3.7915v-1.6924h3.96l-.2293.8023c-.0429.1502-.05.3084-.0208.4618zm.4542 2.3846h-5.2235l-1.28 4h7.2654zm-16.8611-2.3846v-1.6924h-3.96l.2292.8023c.043.1502.0501.3084.0209.4618l-.0816.4283zm-5.0076 6.3846.7619-4h5.2235l1.28 4z" fill="#333" fill-rule="evenodd"/></svg>

<svg width="48" height="48" viewBox="0 0 48 48" fill="none" xmlns="http://www.w3.org/2000/svg">
<path fill-rule="evenodd" clip-rule="evenodd" d="M9 6C7.34315 6 6 7.34315 6 9V39C6 40.6569 7.34315 42 9 42H39C40.6569 42 42 40.6569 42 39V9C42 7.34315 40.6569 6 39 6H9ZM23.0001 11V14H20.0001V16H23.0001V19H25.0001V16H28.0001V14H25.0001V11H23.0001ZM10.0385 21.2747C9.88677 20.7437 10.1943 20.1902 10.7253 20.0385C11.2563 19.8868 11.8098 20.1942 11.9615 20.7253L13.1609 24.923H21V26.923H19.6923V28.6154H20.2307C20.783 28.6154 21.2307 29.0631 21.2307 29.6154C21.2307 30.029 20.9796 30.3839 20.6215 30.5361L21.9524 34.6952C21.9848 34.7965 22.0003 34.8991 22.0003 35H25.9997C25.9997 34.8991 26.0151 34.7965 26.0475 34.6952L27.3785 30.5361C27.0204 30.3839 26.7693 30.029 26.7693 29.6154C26.7693 29.0631 27.217 28.6154 27.7693 28.6154H28.3077V26.923H27V24.923H34.8391L36.0384 20.7253C36.1902 20.1942 36.7437 19.8868 37.2747 20.0385C37.8057 20.1902 38.1132 20.7437 37.9615 21.2747L36.0268 28.0463L37.3156 34.8129C37.3276 34.8757 37.3334 34.9383 37.3335 35H39C39.5523 35 40 35.4477 40 36C40 36.5523 39.5523 37 39 37H9C8.44772 37 8 36.5523 8 36C8 35.4477 8.44772 35 9 35H10.6665C10.6666 34.9383 10.6724 34.8757 10.6843 34.8129L11.9732 28.0463L10.0385 21.2747ZM34.0992 28.6154H30.3077V26.923H34.2677L34.0384 27.7253C33.9955 27.8755 33.9884 28.0337 34.0176 28.1871L34.0992 28.6154ZM34.5534 31H29.3299L28.0499 35H35.3153L34.5534 31ZM17.6923 28.6154V26.923H13.7323L13.9615 27.7253C14.0045 27.8755 14.0116 28.0337 13.9824 28.1871L13.9008 28.6154H17.6923ZM12.6847 35L13.4466 31H18.6701L19.9501 35H12.6847Z" fill="#333333"/>
</svg>
